images_elementary_svg/cmd/sc_insertrowsbefore.svg

<svg viewBox="0 0 16 16" xmlns="http://www.w3.org/2000/svg" xmlns:xlink="http://www.w3.org/1999/xlink"><linearGradient id="a" gradientTransform="matrix(.59435835 0 0 .59991399 -19.26472 -.032551)" gradientUnits="userSpaceOnUse" x1="25.132275" x2="25.132275" y1="15.499894" y2="48.395687"><stop offset="0" stop-color="#fafafa"/><stop offset="1" stop-color="#e2e1de"/></linearGradient><linearGradient id="b" gradientTransform="matrix(.49219581 0 0 .45839231 4.509306 -4.793718)" gradientUnits="userSpaceOnUse" x1="39.241852" x2="10.381506" y1="15.934689" y2="17.17874"><stop offset="0" stop-color="#90dbec"/><stop offset=".26238" stop-color="#55c1ec"/><stop offset=".704952" stop-color="#3689e6"/><stop offset="1" stop-color="#2b63a0"/></linearGradient><linearGradient id="c" gradientTransform="matrix(0 -.5372019 .57681717 0 -15.997188 19.865617)" gradientUnits="userSpaceOnUse" x1="30.655209" x2="30.827799" y1="65.68721" y2="48.688309"><stop offset="0" stop-color="#fff"/><stop offset=".20954022" stop-color="#fff" stop-opacity=".235294"/><stop offset=".85910648" stop-color="#fff" stop-opacity=".156863"/><stop offset="1" stop-color="#fff" stop-opacity=".392157"/></linearGradient><g transform="translate(0 2)"><rect fill="url(#a)" height="10" rx=".423727" ry=".491478" stroke-width="1.33333" width="14" x="1" y="3"/><path d="m.49804688.00195313c-.27630146-.0003844-.50038443.2236985-.50000001.49999999l.00195313 14.99804688c-.00038442.276301.22369855.500384.5.5h15c.276301.000384.500384-.223699.5-.5l-.001953-10.5h.001953v-1h-.001953v-3.49804688c.000384-.27630149-.223699-.50038439-.5-.49999999zm.49804687.99804687h14.00390625v3h-4.001953v-2.9980469h-1.0000001v2.9980469h-4v-2.9980469h-1v2.9980469h-4.00195315zm0 4h4.00390625v2h-4v1h4v3h-4v1h4v3h1v-3h4v3h1v-3h4v-1h-4v-3h4v3l.001953 4.001953h-14.00390612zm5.00390625 0h4v2h-4zm5 0h4v2h-4zm-5 3h4v3h-4z" fill="#030303" opacity=".32" transform="translate(0 -2)"/></g><path d="m1 0h14v5.0000005h-14z" fill="#9cde4a"/><g fill="#5ca12a"><path d="m1 0c-.554 0-1 .446-1 1v3.0000005c0 .554.446 1 1 1h14c.554 0 1-.446 1-1v-3.0000005c0-.554-.446-1-1-1zm0 1h14v3.0000005h-14z"/><path d="m5 1h1v3h-1z"/><path d="m10 1h1v3h-1z"/></g><g transform="matrix(0 -.64678195 .64678195 0 8.940176 22.29121)"><path d="m16.684797 9.2359403 7.010007-6.1202968-7.034165-5.9010098v3.64742781l-6.184797-.01432925.024158 4.65226774 6.184797.014329z" display="block" fill="url(#b)"/><g stroke-miterlimit="7"><path d="m16.684797 9.2359403 7.710591-6.1444549-7.734749-5.8768519v3.64742781l-6.184797-.01432925.024158 4.65226794 6.184797.014329z" style="display:block;fill:#46a9eb;fill-opacity:.984314;stroke:#2f78c8;stroke-width:1.546116;stroke-linejoin:round"/><path d="m17.684797 7.1257513 5.14518-4.0342659-5.169338-3.80370499v2.57428109l-6.184797-.0143292.024158 2.6522677 6.184797.014329z" display="block" fill="none" stroke="url(#c)" stroke-width=".963925"/></g></g></svg>

<?xml version="1.0" encoding="UTF-8" standalone="no"?>
<svg
   xmlns:dc="http://purl.org/dc/elements/1.1/"
   xmlns:cc="http://creativecommons.org/ns#"
   xmlns:rdf="http://www.w3.org/1999/02/22-rdf-syntax-ns#"
   xmlns:svg="http://www.w3.org/2000/svg"
   xmlns="http://www.w3.org/2000/svg"
   xmlns:xlink="http://www.w3.org/1999/xlink"
   xmlns:sodipodi="http://sodipodi.sourceforge.net/DTD/sodipodi-0.dtd"
   xmlns:inkscape="http://www.inkscape.org/namespaces/inkscape"
   viewBox="0 0 16 16"
   version="1.1"
   id="svg6"
   sodipodi:docname="sc_insertrowsbefore.svg"
   inkscape:version="0.92.3 (unknown)"
   inkscape:export-filename="/home/rizmut/Dokumen/Rizmut/Github/libreoffice-style-elementary/images_elementary/cmd/sc_insertrows.png"
   inkscape:export-xdpi="96"
   inkscape:export-ydpi="96">
  <metadata
     id="metadata12">
    <rdf:RDF>
      <cc:Work
         rdf:about="">
        <dc:format>image/svg+xml</dc:format>
        <dc:type
           rdf:resource="http://purl.org/dc/dcmitype/StillImage" />
        <dc:title></dc:title>
      </cc:Work>
    </rdf:RDF>
  </metadata>
  <defs
     id="defs10">
    <linearGradient
       gradientTransform="matrix(1.3831741,0,0,1.414422,-36.243337,-3.8728445)"
       id="e"
       gradientUnits="userSpaceOnUse"
       x1="8.2950277"
       x2="8.2950277"
       y1="-4.283906"
       y2="16.849756">
      <stop
         offset="0"
         stop-color="#cdf87e"
         id="stop22" />
      <stop
         offset=".26238"
         stop-color="#a2e34f"
         id="stop24" />
      <stop
         offset=".66093999"
         stop-color="#68b723"
         id="stop26" />
      <stop
         offset="1"
         stop-color="#1d7e0d"
         id="stop28" />
    </linearGradient>
    <linearGradient
       id="a"
       gradientTransform="matrix(0.59435835,0,0,0.59991399,-19.26472,-0.0325514)"
       gradientUnits="userSpaceOnUse"
       x1="25.132275"
       x2="25.132275"
       y1="15.499894"
       y2="48.395687">
      <stop
         offset="0"
         stop-color="#fafafa"
         id="stop2" />
      <stop
         offset="1"
         stop-color="#e2e1de"
         id="stop4" />
    </linearGradient>
    <linearGradient
       id="f"
       gradientUnits="userSpaceOnUse"
       x1="11.001243"
       x2="11.001243"
       xlink:href="#c"
       y1="2.2688611"
       y2="19.728327"
       gradientTransform="matrix(0.7677984,0,0,1.0267921,4.1154107,18.507334)" />
    <linearGradient
       id="c">
      <stop
         offset="0"
         stop-color="#fff"
         id="stop8" />
      <stop
         offset="0.5"
         stop-color="#fff"
         stop-opacity=".235294"
         id="stop10" />
      <stop
         offset=".95056331"
         stop-color="#fff"
         stop-opacity=".156863"
         id="stop12" />
      <stop
         offset="1"
         stop-color="#fff"
         stop-opacity=".392157"
         id="stop14" />
    </linearGradient>
    <linearGradient
       id="a-6"
       gradientTransform="matrix(0.36872249,0,0,0.38856797,7.575734,7.143101)"
       gradientUnits="userSpaceOnUse"
       x1="11.192374"
       x2="11.192374"
       y1="4.0641632"
       y2="30.298229">
      <stop
         offset="0"
         stop-color="#ed5353"
         id="stop2-4" />
      <stop
         offset="1"
         stop-color="#c6262e"
         id="stop4-1" />
    </linearGradient>
    <linearGradient
       id="a-66"
       gradientTransform="matrix(0.49219581,0,0,0.45839231,4.509306,-4.793718)"
       gradientUnits="userSpaceOnUse"
       x1="39.241852"
       x2="10.381506"
       y1="15.934689"
       y2="17.17874">
      <stop
         offset="0"
         stop-color="#90dbec"
         id="stop2-2" />
      <stop
         offset=".26238"
         stop-color="#55c1ec"
         id="stop4-19" />
      <stop
         offset=".704952"
         stop-color="#3689e6"
         id="stop6" />
      <stop
         offset="1"
         stop-color="#2b63a0"
         id="stop8-6" />
    </linearGradient>
    <linearGradient
       id="b"
       gradientTransform="matrix(0,-0.5372019,0.57681717,0,-15.997188,19.865617)"
       gradientUnits="userSpaceOnUse"
       x1="30.655209"
       x2="30.827799"
       y1="65.68721"
       y2="48.688309">
      <stop
         offset="0"
         stop-color="#fff"
         id="stop11" />
      <stop
         offset="0.20954022"
         stop-color="#fff"
         stop-opacity=".235294"
         id="stop13" />
      <stop
         offset="0.85910648"
         stop-color="#fff"
         stop-opacity=".156863"
         id="stop15" />
      <stop
         offset="1"
         stop-color="#fff"
         stop-opacity=".392157"
         id="stop17" />
    </linearGradient>
  </defs>
  <sodipodi:namedview
     pagecolor="#ffffff"
     bordercolor="#666666"
     borderopacity="1"
     objecttolerance="10"
     gridtolerance="10"
     guidetolerance="10"
     inkscape:pageopacity="0"
     inkscape:pageshadow="2"
     inkscape:window-width="1366"
     inkscape:window-height="706"
     id="namedview8"
     showgrid="true"
     inkscape:snap-global="false"
     inkscape:zoom="11.313709"
     inkscape:cx="9.9767025"
     inkscape:cy="0.096403799"
     inkscape:window-x="0"
     inkscape:window-y="0"
     inkscape:window-maximized="1"
     inkscape:current-layer="g30">
    <inkscape:grid
       type="xygrid"
       id="grid846" />
  </sodipodi:namedview>
  <g
     id="g909"
     transform="translate(0,1.9999995)">
    <rect
       style="fill:url(#a);stroke-width:1.33332992"
       height="10"
       rx="0.42372692"
       ry="0.4914782"
       width="14"
       x="1"
       y="3"
       id="rect32" />
    <path
       style="opacity:0.32000002;fill:#030303;fill-opacity:1"
       d="M 0.49804688 0.001953125 C 0.22174542 0.001568725 -0.002337545 0.22565163 -0.001953125 0.50195312 L 0 15.5 C -0.00038442363 15.776301 0.22369855 16.000384 0.5 16 L 15.5 16 C 15.776301 16.000384 16.000384 15.776301 16 15.5 L 15.998047 5 L 16 5 L 16 4 L 15.998047 4 L 15.998047 0.50195312 C 15.998431 0.22565163 15.774348 0.001568725 15.498047 0.001953125 L 0.49804688 0.001953125 z M 0.99609375 1 L 15 1 L 15 4 L 10.998047 4 L 10.998047 1.0019531 L 9.9980469 1.0019531 L 9.9980469 4 L 5.9980469 4 L 5.9980469 1.0019531 L 4.9980469 1.0019531 L 4.9980469 4 L 0.99609375 4 L 0.99609375 1 z M 0.99609375 5 L 5 5 L 5 7 L 1 7 L 1 8 L 5 8 L 5 11 L 1 11 L 1 12 L 5 12 L 5 15 L 6 15 L 6 12 L 10 12 L 10 15 L 11 15 L 11 12 L 15 12 L 15 11 L 11 11 L 11 8 L 15 8 L 15 11 L 15.001953 15.001953 L 0.99804688 15.001953 L 0.99609375 5 z M 6 5 L 10 5 L 10 7 L 6 7 L 6 5 z M 11 5 L 15 5 L 15 7 L 11 7 L 11 5 z M 6 8 L 10 8 L 10 11 L 6 11 L 6 8 z "
       transform="translate(0,-1.9999995)"
       id="path4" />
  </g>
  <path
     inkscape:connector-curvature="0"
     style="fill:#9cde4a;fill-opacity:1"
     d="M 1,0 H 15 V 5.0000005 H 1 Z"
     id="path82"
     sodipodi:nodetypes="ccccc" />
  <path
     inkscape:connector-curvature="0"
     style="fill:#5ca12a;fill-opacity:1"
     d="M 1,0 C 0.446,0 0,0.446 0,1 v 3.0000005 c 0,0.554 0.446,1 1,1 h 14 c 0.554,0 1,-0.446 1,-1 V 1 C 16,0.446 15.554,0 15,0 Z M 1,1 H 15 V 4.0000005 H 1 Z"
     id="path90"
     sodipodi:nodetypes="sssssssssccccc" />
  <rect
     style="opacity:1;fill:#5ca12a;fill-opacity:1;stroke:none;stroke-width:1;stroke-miterlimit:4;stroke-dasharray:none;stroke-dashoffset:0;stroke-opacity:0.49019608"
     id="rect863"
     width="1"
     height="3"
     x="5"
     y="1" />
  <rect
     y="1"
     x="10"
     height="3"
     width="1"
     id="rect865"
     style="opacity:1;fill:#5ca12a;fill-opacity:1;stroke:none;stroke-width:1;stroke-miterlimit:4;stroke-dasharray:none;stroke-dashoffset:0;stroke-opacity:0.49019608" />
  <g
     transform="matrix(0,-0.64678195,0.64678195,0,8.9401759,22.29121)"
     id="g30">
    <path
       style="display:block;fill:url(#a-66)"
       inkscape:connector-curvature="0"
       d="M 16.684797,9.2359403 23.694804,3.1156435 16.660639,-2.7853663 V 0.86206151 L 10.475842,0.84773226 10.5,5.5 l 6.184797,0.014329 z"
       display="block"
       id="path24"
       sodipodi:nodetypes="cccccccc" />
    <path
       inkscape:connector-curvature="0"
       d="M 16.684797,9.2359403 24.395388,3.0914854 16.660639,-2.7853665 V 0.86206131 L 10.475842,0.84773206 10.5,5.5 16.684797,5.514329 Z"
       style="display:block;fill:#46a9eb;fill-opacity:0.98431402;stroke:#2f78c8;stroke-width:1.54611611;stroke-linejoin:round;stroke-miterlimit:7;stroke-dasharray:none"
       id="path26"
       sodipodi:nodetypes="cccccccc" />
    <path
       style="display:block;fill:none;stroke:url(#b);stroke-width:0.963925;stroke-miterlimit:7"
       inkscape:connector-curvature="0"
       d="m 17.684797,7.1257513 5.14518,-4.0342659 -5.169338,-3.80370499 V 1.8620615 L 11.475842,1.8477323 11.5,4.5 17.684797,4.514329 Z"
       display="block"
       stroke-miterlimit="7"
       id="path28"
       sodipodi:nodetypes="cccccccc" />
  </g>
</svg>
